public/build/img/skills/wave.svg

<?xml version="1.0" encoding="utf-8"?>
<!-- Generator: Adobe Illustrator 24.0.0, SVG Export Plug-In . SVG Version: 6.00 Build 0)  -->
<svg version="1.1" id="Capa_1" xmlns="http://www.w3.org/2000/svg" xmlns:xlink="http://www.w3.org/1999/xlink" x="0px" y="0px"
	 viewBox="0 0 1440 320" style="enable-background:new 0 0 1440 320;" xml:space="preserve">
<style type="text/css">
	.st0{fill:#F9FAFB;}
</style>
<path class="st0" d="M0,192l21.8-10.7C43.6,171,87,149,131,138.7c43.5-10.7,87-10.7,131,5.3c43.5,16,87,48,131,42.7
	c43.4-5.7,87-47.7,131-37.4c43.3,10.7,87,74.7,131,64c43.2-10.3,87-96.3,130-106.6c44.1-10.7,88,53.3,131,74.6
	c44,21.7,88-0.3,131-21.3c43.9-21,88-43,131-69.3C1221.8,64,1265,32,1309,32c43.7,0,87,32,109,48l22,16V0h-21.8
	c-21.8,0-65.2,0-109.2,0c-43.5,0-87,0-131,0c-43.5,0-87,0-131,0c-43.4,0-87,0-131,0c-43.3,0-87,0-131,0c-43.2,0-87,0-130,0
	c-44.1,0-88,0-131,0c-44,0-88,0-131,0c-43.9,0-88,0-131,0c-43.8,0-87,0-131,0C87.3,0,44,0,22,0H0V192z"/>
</svg>

<?xml version="1.0" standalone="no"?><svg xmlns="http://www.w3.org/2000/svg" viewBox="0 0 1440 320"><path fill="#f3f4f5" fill-opacity="1" d="M0,192L21.8,181.3C43.6,171,87,149,131,138.7C174.5,128,218,128,262,144C305.5,160,349,192,393,186.7C436.4,181,480,139,524,149.3C567.3,160,611,224,655,213.3C698.2,203,742,117,785,106.7C829.1,96,873,160,916,181.3C960,203,1004,181,1047,160C1090.9,139,1135,117,1178,90.7C1221.8,64,1265,32,1309,32C1352.7,32,1396,64,1418,80L1440,96L1440,0L1418.2,0C1396.4,0,1353,0,1309,0C1265.5,0,1222,0,1178,0C1134.5,0,1091,0,1047,0C1003.6,0,960,0,916,0C872.7,0,829,0,785,0C741.8,0,698,0,655,0C610.9,0,567,0,524,0C480,0,436,0,393,0C349.1,0,305,0,262,0C218.2,0,175,0,131,0C87.3,0,44,0,22,0L0,0Z"></path></svg>
